icons/dashboard-2-fill.svg

<svg viewBox="0 0 24 24" fill="currentColor" xmlns="http://www.w3.org/2000/svg">
    <path d="M12 2C17.5228 2 22 6.47715 22 12C22 17.5228 17.5228 22 12 22C6.47715 22 2 17.5228 2 12C2 6.47715 6.47715 2 12 2ZM12 5C8.13401 5 5 8.13401 5 12C5 13.8525 5.71957 15.5368 6.89445 16.7889L7.05025 16.9497L8.46447 15.5355C7.55964 14.6307 7 13.3807 7 12C7 9.23858 9.23858 7 12 7C12.448 7 12.8822 7.05892 13.2954 7.16944L14.8579 5.60806C13.9852 5.21731 13.018 5 12 5ZM18.3924 9.14312L16.8306 10.7046C16.9411 11.1178 17 11.552 17 12C17 13.3807 16.4404 14.6307 15.5355 15.5355L16.9497 16.9497C18.2165 15.683 19 13.933 19 12C19 10.9824 18.7829 10.0155 18.3924 9.14312ZM16.2426 6.34315L12.517 10.0675C12.3521 10.0235 12.1788 10 12 10C10.8954 10 10 10.8954 10 12C10 13.1046 10.8954 14 12 14C13.1046 14 14 13.1046 14 12C14 11.8212 13.9765 11.6479 13.9325 11.483L17.6569 7.75736L16.2426 6.34315Z"/>
</svg>

<svg xmlns="http://www.w3.org/2000/svg" viewBox="0 0 24 24">
    <g>
        <path fill="none" d="M0 0H24V24H0z"/>
        <path d="M12 2c5.523 0 10 4.477 10 10s-4.477 10-10 10S2 17.523 2 12 6.477 2 12 2zm0 3c-3.866 0-7 3.134-7 7 0 1.852.72 3.537 1.894 4.789l.156.16 1.414-1.413C7.56 14.63 7 13.38 7 12c0-2.761 2.239-5 5-5 .448 0 .882.059 1.295.17l1.563-1.562C13.985 5.218 13.018 5 12 5zm6.392 4.143l-1.561 1.562c.11.413.169.847.169 1.295 0 1.38-.56 2.63-1.464 3.536l1.414 1.414C18.216 15.683 19 13.933 19 12c0-1.018-.217-1.985-.608-2.857zm-2.15-2.8l-3.725 3.724C12.352 10.023 12.179 10 12 10c-1.105 0-2 .895-2 2s.895 2 2 2 2-.895 2-2c0-.179-.023-.352-.067-.517l3.724-3.726-1.414-1.414z"/>
    </g>
</svg>
